X: 6301
T: Carraigín Ruadh
R: reel
M: 4/4
K: Dmajor
df3 eBdB|AF3 EDBd|dBAF DEFA|Bded BAFA|
f2df eBdB|AF3 EDBA|BEFE DEFA|dBAG FDDe:|
faaf afdg|faaf bfaf|gfef gbag|faed AGFg|
fa3 afde|fgaf bfaf|gfef gbag|faeg fdd2|
faaf afdg|faaf bfaf|gfed cbag|faec AGFA|
gb3 afde|f2fd edBA|Bded BAFA|dBAG FDD2||

